X: 26746
T: Milky Way, The
R: reel
M: 4/4
K: Dmajor
|:D2 (3FED FA A2|d2 fd efdA|D2 (3FED FA A2|BF F2 BFAF|
D2 (3FED FAAB|d2 fd ef d2|efdB BAFB|AFEG FD D2:|
|:efdB BAFA|d2 fd ef d2|efdB BAFB|AFEG FD D2|
efdB BAFA|d2 fd efde|f2 df efdB|AFEG FD D2:|

